X: 1281
T: Köprüler Yaptırdım Gelip Geçmeye
C: Mustafa Sağyaşar
O: Turkey
F: http://compmusic.upf.edu/node/140
N: huzzam--turku--nimsofyan--kopruler_yaptirdim--mustafa_sagyasar
N: makam= huzzam
N: form= turku
N: usul= nimsofyan = 2/4
M: 2/4
L: 1/16
K: C _1/4B _3/4e ^3/4f 
Q: 1/4=90
%%MIDI tuningsystem comma53
Bcd2 {e}dccB  | B3G Bcd2  | Bcd2 {e}dccB  | B8  | \
w:  ARANAĞME  |   |   |   | 
Bcd2 {e}dccB  | 
w:  ARANAĞME  | 
B3G Bcd2  | Bcd2 {e}dccB  | B8  | z2ed eded  | \
w:   |   |   |   | 
edef edc2  | 
w:   | 
Bcd2 {e}dccB  | B3f ede2  | z2ed eded  | \
w:   |   |   | 
edef edc2  | 
w:   | 
Bcd2 {e}dccB  | B2c2 ^c2d2  | d2d6  | d8  | d8  | d8  | \
w:   |   |  Hey  hey   |   |   |   | 
z2Bc d2d2  | 
w:  Köp rü ler  yap  | 
d2d2 dd3  | d2d2 edc2  | z2ee e2e2  | e2ed edc2  | \
w:  tır dım  ge lip   |  geç me ye    |  Çeş me ler  yap  |  tır dım  *  su yun   | 
Bcdc d2cB  | 
w:  iç *  me *  *  ye   | 
cB7  | Bcdc d2cB  | BB2^A Bcd2  | z2Bc dd3  | \
w:  ka ram    |  iç *  me *  *  ye   |  ka ram    |  Kavl_ i  ka rar   | 
d2d2 dd3  | 
w:  et tim  a lıp   | 
d2d2 edc2  | z2ee e2e2  | e2ed edc2  | Bcdc d2cB  | 
w:  kaç ma ya    |  Bo şa  kos tak  |  lan ma  *  kos *  tak   |  de *  ğil *  *  sin   | 
cB7  | Bcdc d2cB  | =fff=e e2ed  | dd2c dccB  | 
w:  ka ram    |  De *  ğil *  *  sin   |  ka ram_ a man  am man   |  de ğil *  *  *  sin   | 
B2B6  | Bcd2 {e}dccB  | B3G Bcd2  | Bcd2 {e}dccB  | 
w:  vay  vay    |  ARANAĞME  |   |   | 
B8  | Bcd2 {e}dccB  | B3G Bcd2  | Bcd2 {e}dccB  | B8  | 
w:   |  ARANAĞME  |   |   |   | 
z2ed eded  | edef edc2  | Bcd2 {e}dccB  | 
w:   |   |   | 
B3f ede2  | z2ed eded  | edef edc2  | Bcd2 {e}dccB  | 
w:   |   |   |   | 
B2c2 ^c2d2  | d2d6  | d8  | d8  | d8  | z2Bc d2d2  | \
w:   |  Hey  hey   |   |   |   |  Köp rü ler  yap  | 
d2d2 dd3  | d2d2 edc2  | 
w:  tır dım  ge lip   |  geç me ye    | 
z2ee e2e2  | e2ed edc2  | Bcdc d2cB  | cB7  | \
w:  Çeş me ler  yap  |  tır dım  *  su yun   |  iç *  me *  *  ye   |  ka ram    | 
Bcdc d2cB  | 
w:  iç *  me *  *  ye   | 
BB2^A Bcd2  | z2Bc dd3  | d2d2 dd3  | d2d2 edc2  | \
w:  ka ram    |  Kavl_ i  ka rar   |  et tim  a lıp   |  kaç ma ya    | 
z2ee e2e2  | 
w:  Bo şa  kos tak  | 
e2ed edc2  | Bcdc d2cB  | cB7  | Bcdc d2cB  | 
w:  lan ma  *  kos *  tak   |  de *  ğil *  *  sin   |  ka ram    |  De *  ğil *  *  sin   | 
=fff=e e2ed  | dd2c dccB  | B2B6  | |


